; generated by PrusaSlicer 2.9.2 on 2025-11-27 at 13:14:59 UTC


;
;
; 

; external perimeters extrusion width = 0.45mm
; perimeters extrusion width = 0.45mm
; infill extrusion width = 0.45mm
; solid infill extrusion width = 0.45mm
; top infill extrusion width = 0.40mm
; first layer extrusion width = 0.42mm

M73 P0 R16
M73 Q0 S16
M201 X1000 Y1000 Z200 E5000 ; sets maximum accelerations, mm/sec^2
M203 X200 Y200 Z12 E120 ; sets maximum feedrates, mm / sec
M204 S1250 T1250 ; sets acceleration (S) and retract acceleration (R), mm/sec^2
M205 X8.00 Y8.00 Z0.40 E4.50 ; sets the jerk limits, mm/sec
M205 S0 T0 ; sets the minimum extruding and travel feed rate, mm/sec

; printing object Extension_module_outer_mold_clampholder id:0 copy 0
; stop printing object Extension_module_outer_mold_clampholder id:0 copy 0

;TYPE:Custom
M862.3 P "MK3S" ; printer model check
M862.1 P0.4 ; nozzle diameter check
M115 U3.14.1 ; tell printer latest fw version
G90 ; use absolute coordinates
M83 ; extruder relative mode
M104 S240 ; set extruder temp
M140 S85 ; set bed temp
M190 S85 ; wait for bed temp
M109 S240 ; wait for extruder temp
G28 W ; home all without mesh bed level
G80 X100.223 Y80.2229 W49.5542 H49.5542 ; mesh bed levelling

G1 Z0.2 F720
G1 Y-3 F1000 ; go outside print area
G92 E0
G1 X60 E9 F1000 ; intro line
M73 P0 R15
G1 X100 E12.5 F1000 ; intro line
M73 Q0 S15

G92 E0
M221 S95

; Don't change E values below. Excessive value can damage the printer.

M907 E538 ; set extruder motor current
G21 ; set units to millimeters
G90 ; use absolute coordinates
M83 ; use relative distances for extrusion

M900 K0.08 ; Filament gcode LA 1.5
M900 K45 ; Filament gcode LA 1.0




M107
;LAYER_CHANGE
;Z:0.2
;HEIGHT:0.2
G1 E-1 F2100
G1 Z.4 F720
G1 X103.976 Y87.053 F10800
G1 Z.2 F720
G1 E1 F2100
M204 S800
;TYPE:Skirt/Brim
;WIDTH:0.42
G1 F1200
G1 X105.375 Y85.458 E.06652
G1 X106.697 Y84.27 E.05573
G1 X107.51 Y83.647 E.03211
G1 X109.272 Y82.527 E.06546
G1 X111.114 Y81.649 E.06398
G1 X112.756 Y81.086 E.05443
G1 X115.134 Y80.577 E.07625
G1 X117.277 Y80.415 E.06738
G1 X132.605 Y80.412 E.4806
G1 X134.816 Y80.569 E.0695
G1 X137.252 Y81.089 E.0781
G1 X139.484 Y81.912 E.07459
G1 X141.044 Y82.7 E.0548
G1 X142.49 Y83.647 E.0542
G1 X144.506 Y85.34 E.08254
G1 X146.024 Y87.053 E.07176
M73 Q1 S15
G1 X147.298 Y88.953 E.07173
G1 X148.352 Y91.117 E.07547
G1 X149.115 Y93.536 E.07953
M73 P1 R15
G1 X149.447 Y95.3 E.05628
G1 X149.572 Y96.988 E.05307
G1 X149.589 Y112.554 E.48806
G1 X149.453 Y114.649 E.06583
G1 X148.911 Y117.252 E.08337
G1 X148.148 Y119.356 E.07017
G1 X147.3 Y121.044 E.05923
G1 X146.024 Y122.947 E.07184
G1 X144.625 Y124.542 E.06652
G1 X143.228 Y125.793 E.0588
G1 X142.455 Y126.377 E.03038
G1 X140.728 Y127.473 E.06413
G1 X138.886 Y128.351 E.06398
G1 X136.802 Y129.038 E.0688
G1 X134.699 Y129.447 E.06717
G1 X132.723 Y129.585 E.06211
G1 X117.277 Y129.585 E.4843
G1 X115.301 Y129.447 E.06211
G1 X112.746 Y128.911 E.08185
G1 X110.644 Y128.148 E.07011
G1 X108.953 Y127.299 E.05933
G1 X107.053 Y126.024 E.07174
G1 X105.458 Y124.625 E.06652
G1 X104.207 Y123.228 E.0588
G1 X103.623 Y122.455 E.03038
G1 X102.527 Y120.728 E.06413
G1 X101.649 Y118.886 E.06398
G1 X100.962 Y116.802 E.0688
G1 X100.553 Y114.699 E.06717
G1 X100.415 Y112.723 E.06211
G1 X100.415 Y97.277 E.4843
G1 X100.553 Y95.301 E.06211
G1 X101.089 Y92.748 E.08179
G1 X101.852 Y90.644 E.07017
G1 X102.7 Y88.956 E.05923
G1 X103.943 Y87.103 E.06996
M204 S1000
;WIPE_START
G1 F8640
G1 X103.976 Y87.053 E-.01383
G1 X105.375 Y85.458 E-.48989
G1 X106.697 Y84.27 E-.4104
G1 X106.992 Y84.044 E-.08588
;WIPE_END
G1 Z.4 F720
G1 X105.83 Y88.711 F10800
G1 Z.2 F720
G1 E1 F2100
M204 S800
G1 F1200
G1 X107.003 Y87.334 E.05672
G1 X108.743 Y85.801 E.07271
G1 X110.203 Y84.839 E.05482
G1 X111.756 Y84.062 E.05445
G1 X113.898 Y83.34 E.07087
G1 X115.649 Y83.005 E.0559
G1 X117.431 Y82.887 E.056
G1 X132.577 Y82.887 E.47489
G1 X134.58 Y83.035 E.06297
G1 X136.281 Y83.385 E.05445
G1 X137.925 Y83.931 E.05431
G1 X139.702 Y84.787 E.06184
G1 X141.332 Y85.858 E.06115
G1 X142.901 Y87.236 E.06547
G1 X144.265 Y88.838 E.06597
G1 X145.19 Y90.254 E.05303
G1 X145.935 Y91.751 E.05243
G1 X146.562 Y93.524 E.05896
G1 X146.966 Y95.433 E.06118
G1 X147.114 Y97.426 E.06266
G1 X147.107 Y112.754 E.4806
G1 X146.967 Y114.562 E.05686
M73 P2 R15
M73 Q2 S15
G1 X146.595 Y116.357 E.05748
G1 X146.005 Y118.083 E.05719
G1 X145.212 Y119.708 E.05669
G1 X144.173 Y121.29 E.05934
G1 X142.947 Y122.718 E.05901
G1 X141.541 Y123.98 E.05924
G1 X139.992 Y125.047 E.05898
G1 X137.908 Y126.076 E.07287
G1 X136.238 Y126.627 E.05514
G1 X134.517 Y126.973 E.05504
G1 X132.571 Y127.114 E.06118
G1 X117.15 Y127.103 E.48351
G1 X115.406 Y126.962 E.05486
G1 X113.61 Y126.586 E.05753
G1 X111.91 Y126.002 E.05636
G1 X110.29 Y125.211 E.05653
G1 X108.709 Y124.173 E.0593
G1 X107.282 Y122.947 E.05899
G1 X106.02 Y121.541 E.05924
G1 X104.953 Y119.992 E.05898
G1 X103.924 Y117.908 E.07287
G1 X103.373 Y116.237 E.05517
G1 X103.027 Y114.517 E.05501
G1 X102.886 Y112.571 E.06118
G1 X102.897 Y97.15 E.48351
G1 X103.038 Y95.406 E.05486
G1 X103.414 Y93.61 E.05753
G1 X103.998 Y91.91 E.05636
G1 X104.788 Y90.292 E.05646
G1 X105.792 Y88.756 E.05754
M204 S1000
G1 X106.102 Y88.971 F10800
M204 S800
G1 F1200
G1 X107.281 Y87.589 E.05696
G1 X108.961 Y86.108 E.07022
G1 X110.382 Y85.171 E.05337
G1 X111.913 Y84.405 E.05368
G1 X114.006 Y83.702 E.06923
G1 X115.708 Y83.377 E.05433
G1 X117.437 Y83.264 E.05433
G1 X132.571 Y83.264 E.47452
G1 X134.516 Y83.407 E.06115
G1 X136.173 Y83.746 E.05303
G1 X137.795 Y84.285 E.05359
G1 X139.506 Y85.109 E.05954
G1 X141.093 Y86.15 E.05951
G1 X142.623 Y87.491 E.06379
G1 X143.956 Y89.055 E.06443
G1 X144.858 Y90.432 E.05161
G1 X145.592 Y91.908 E.05169
G1 X146.202 Y93.638 E.05752
G1 X146.595 Y95.499 E.05964
G1 X146.736 Y97.433 E.0608
G1 X146.731 Y112.733 E.47972
G1 X146.595 Y114.498 E.0555
G1 X146.234 Y116.247 E.05599
G1 X145.66 Y117.928 E.05569
G1 X144.878 Y119.531 E.05592
G1 X143.865 Y121.073 E.05785
G1 X142.67 Y122.462 E.05745
G1 X141.299 Y123.691 E.05773
G1 X139.79 Y124.728 E.05741
G1 X137.778 Y125.722 E.07036
G1 X136.152 Y126.26 E.0537
G1 X134.455 Y126.601 E.05427
G1 X132.565 Y126.736 E.05941
G1 X117.172 Y126.726 E.48264
G1 X115.471 Y126.591 E.0535
M73 Q3 S15
G1 X113.699 Y126.219 E.05677
G1 X112.044 Y125.649 E.05488
M73 P3 R15
G1 X110.467 Y124.877 E.05505
G1 X108.927 Y123.865 E.05778
G1 X107.537 Y122.669 E.05749
G1 X106.309 Y121.299 E.05769
G1 X105.272 Y119.79 E.05741
G1 X104.278 Y117.777 E.07039
G1 X103.74 Y116.151 E.0537
G1 X103.399 Y114.454 E.05427
G1 X103.264 Y112.565 E.05938
G1 X103.274 Y97.172 E.48264
G1 X103.409 Y95.471 E.0535
G1 X103.781 Y93.699 E.05677
G1 X104.351 Y92.044 E.05488
G1 X105.122 Y90.468 E.05501
G1 X106.069 Y89.021 E.05422
M204 S1000
G1 X106.384 Y89.228 F10800
M204 S800
G1 F1200
G1 X106.411 Y89.188 E.00151
G1 X107.559 Y87.844 E.05542
G1 X109.18 Y86.416 E.06773
G1 X110.58 Y85.492 E.05259
G1 X112.07 Y84.749 E.0522
G1 X114.113 Y84.063 E.06757
G1 X115.767 Y83.75 E.05278
G1 X117.443 Y83.641 E.05266
G1 X132.564 Y83.641 E.47411
G1 X134.452 Y83.779 E.05935
G1 X136.086 Y84.113 E.05229
G1 X137.664 Y84.639 E.05215
G1 X139.33 Y85.443 E.058
G1 X140.875 Y86.458 E.05796
G1 X142.364 Y87.766 E.06214
G1 X143.647 Y89.271 E.06201
G1 X144.536 Y90.629 E.05089
G1 X145.249 Y92.065 E.05027
G1 X145.842 Y93.751 E.05604
G1 X146.223 Y95.564 E.05809
G1 X146.359 Y97.439 E.05894
G1 X146.354 Y112.711 E.47884
G1 X146.223 Y114.434 E.05418
G1 X145.873 Y116.137 E.05451
G1 X145.307 Y117.795 E.05493
G1 X144.545 Y119.355 E.05444
G1 X143.571 Y120.836 E.05558
G1 X142.409 Y122.19 E.05594
G1 X141.056 Y123.402 E.05695
G1 X139.588 Y124.41 E.05583
G1 X137.647 Y125.368 E.06787
G1 X136.045 Y125.898 E.05291
G1 X134.393 Y126.229 E.05283
G1 X132.558 Y126.359 E.05768
G1 X117.194 Y126.35 E.48173
G1 X115.536 Y126.219 E.05215
G1 X113.81 Y125.859 E.05528
G1 X112.178 Y125.296 E.05413
G1 X110.644 Y124.544 E.05357
G1 X109.145 Y123.557 E.05627
G1 X107.793 Y122.392 E.05596
G1 X106.598 Y121.056 E.0562
G1 X105.59 Y119.587 E.05586
G1 X104.632 Y117.646 E.06787
G1 X104.102 Y116.044 E.05291
G1 X103.771 Y114.392 E.05283
G1 X103.641 Y112.558 E.05765
G1 X103.65 Y97.194 E.48173
G1 X103.781 Y95.537 E.05212
G1 X104.141 Y93.81 E.05531
G1 X104.704 Y92.178 E.05413
G1 X105.455 Y90.645 E.05352
M73 Q4 S15
G1 X106.352 Y89.278 E.05126
M204 S1000
G1 X106.667 Y89.485 F10800
M204 S800
G1 F1200
G1 X106.719 Y89.405 E.00299
G1 X107.837 Y88.1 E.05388
G1 X109.399 Y86.723 E.06529
M73 P4 R15
G1 X110.759 Y85.824 E.05112
G1 X112.226 Y85.092 E.0514
G1 X114.221 Y84.425 E.06596
G1 X115.825 Y84.123 E.05118
G1 X117.449 Y84.018 E.05103
G1 X132.557 Y84.018 E.4737
G1 X134.389 Y84.151 E.05759
G1 X135.978 Y84.475 E.05085
G1 X137.533 Y84.993 E.05139
G1 X139.155 Y85.777 E.05649
G1 X140.657 Y86.766 E.05639
G1 X142.086 Y88.021 E.05963
G1 X143.338 Y89.488 E.06047
G1 X144.203 Y90.807 E.04946
G1 X144.906 Y92.223 E.04957
G1 X145.482 Y93.864 E.05453
G1 X145.851 Y95.628 E.05651
G1 X145.982 Y97.446 E.05715
G1 X145.978 Y112.69 E.47796
G1 X145.852 Y114.37 E.05282
G1 X145.506 Y116.049 E.05375
G1 X144.955 Y117.662 E.05344
G1 X144.212 Y119.178 E.05293
G1 X143.263 Y120.619 E.0541
G1 X142.131 Y121.934 E.0544
G1 X140.814 Y123.113 E.05542
G1 X139.386 Y124.091 E.05427
G1 X137.516 Y125.014 E.06539
G1 X135.959 Y125.531 E.05144
G1 X134.33 Y125.857 E.05209
G1 X132.552 Y125.982 E.05589
G1 X117.216 Y125.973 E.48085
G1 X115.602 Y125.847 E.05076
G1 X113.899 Y125.492 E.05454
G1 X112.312 Y124.944 E.05264
G1 X110.821 Y124.211 E.05209
G1 X109.381 Y123.263 E.05406
G1 X108.066 Y122.131 E.0544
G1 X106.887 Y120.814 E.05542
G1 X105.909 Y119.386 E.05427
G1 X104.985 Y117.515 E.06543
G1 X104.469 Y115.958 E.05143
G1 X104.143 Y114.33 E.05206
G1 X104.018 Y112.552 E.05589
G1 X104.027 Y97.216 E.48085
G1 X104.153 Y95.602 E.05076
G1 X104.508 Y93.899 E.05454
G1 X105.056 Y92.312 E.05264
G1 X105.788 Y90.822 E.05205
G1 X106.634 Y89.535 E.04829
M204 S1000
G1 X106.949 Y89.742 F10800
M204 S800
G1 F1200
G1 X107.027 Y89.622 E.00449
G1 X108.114 Y88.355 E.05234
G1 X109.617 Y87.031 E.0628
G1 X110.957 Y86.145 E.05037
G1 X112.383 Y85.435 E.04995
G1 X114.303 Y84.793 E.06348
G1 X115.861 Y84.498 E.04972
G1 X117.455 Y84.395 E.05008
G1 X132.55 Y84.395 E.47329
G1 X134.326 Y84.523 E.05583
G1 X135.891 Y84.842 E.05008
G1 X137.402 Y85.346 E.04994
G1 X138.979 Y86.111 E.05496
G1 X140.438 Y87.073 E.05479
G1 X141.827 Y88.295 E.05801
G1 X143.03 Y89.705 E.05811
G1 X143.882 Y91.004 E.04871
G1 X144.563 Y92.38 E.04814
G1 X145.122 Y93.977 E.05305
G1 X145.48 Y95.693 E.05496
M73 Q5 S15
G1 X145.605 Y97.452 E.05529
G1 X145.601 Y112.669 E.47712
M73 P5 R15
G1 X145.48 Y114.306 E.05147
G1 X145.146 Y115.939 E.05226
G1 X144.611 Y117.507 E.05195
G1 X143.878 Y119.001 E.05218
G1 X142.955 Y120.401 E.05258
G1 X141.853 Y121.679 E.05291
G1 X140.572 Y122.823 E.05385
G1 X139.184 Y123.772 E.05272
G1 X137.384 Y124.661 E.06295
G1 X135.851 Y125.169 E.05064
G1 X134.268 Y125.485 E.05061
G1 X132.545 Y125.605 E.05415
G1 X117.238 Y125.597 E.47994
G1 X115.667 Y125.476 E.0494
G1 X113.988 Y125.125 E.05378
G1 X112.447 Y124.591 E.05114
G1 X110.998 Y123.878 E.05063
G1 X109.599 Y122.955 E.05255
G1 X108.321 Y121.853 E.05291
G1 X107.177 Y120.572 E.05385
G1 X106.228 Y119.184 E.05272
G1 X105.339 Y117.384 E.06295
G1 X104.831 Y115.851 E.05064
G1 X104.515 Y114.268 E.05061
G1 X104.395 Y112.545 E.05415
G1 X104.403 Y97.238 E.47994
G1 X104.524 Y95.667 E.0494
G1 X104.875 Y93.988 E.05378
G1 X105.409 Y92.447 E.05114
G1 X106.121 Y90.999 E.05059
G1 X106.916 Y89.792 E.04532
M204 S1000
G1 X107.23 Y90 F10800
M204 S800
G1 F1200
G1 X107.336 Y89.84 E.00602
G1 X108.392 Y88.611 E.05081
G1 X109.837 Y87.338 E.06038
G1 X111.136 Y86.478 E.04885
G1 X112.539 Y85.779 E.04915
G1 X114.386 Y85.161 E.06107
G1 X115.92 Y84.871 E.04895
G1 X117.461 Y84.772 E.04842
G1 X132.544 Y84.772 E.47292
G1 X134.263 Y84.895 E.05404
G1 X135.783 Y85.203 E.04863
G1 X137.271 Y85.7 E.04919
G1 X138.782 Y86.433 E.05266
G1 X140.199 Y87.366 E.0532
G1 X141.549 Y88.55 E.0563
G1 X142.721 Y89.922 E.05658
G1 X143.549 Y91.182 E.04727
G1 X144.22 Y92.536 E.04738
G1 X144.762 Y94.089 E.05157
G1 X145.108 Y95.757 E.05341
G1 X145.228 Y97.459 E.0535
G1 X145.224 Y112.649 E.47627
G1 X145.108 Y114.243 E.05011
G1 X144.785 Y115.828 E.05072
G1 X144.258 Y117.373 E.05118
G1 X143.545 Y118.824 E.05069
G1 X142.647 Y120.183 E.05107
G1 X141.576 Y121.423 E.05137
G1 X140.33 Y122.534 E.05234
G1 X138.982 Y123.453 E.05115
G1 X137.253 Y124.307 E.06046
G1 X135.766 Y124.802 E.04914
G1 X134.206 Y125.113 E.04988
G1 X132.539 Y125.228 E.05239
G1 X117.259 Y125.22 E.47909
G1 X115.731 Y125.104 E.04805
M73 P6 R15
M73 Q6 S15
G1 X114.099 Y124.765 E.05226
G1 X112.603 Y124.248 E.04963
G1 X111.175 Y123.545 E.04991
G1 X109.817 Y122.647 E.05105
G1 X108.577 Y121.576 E.05137
G1 X107.466 Y120.33 E.05234
G1 X106.547 Y118.982 E.05115
G1 X105.693 Y117.253 E.06046
G1 X105.198 Y115.765 E.04917
G1 X104.887 Y114.206 E.04984
G1 X104.772 Y112.539 E.05239
G1 X104.78 Y97.259 E.47909
G1 X104.896 Y95.731 E.04805
G1 X105.235 Y94.099 E.05226
G1 X105.752 Y92.603 E.04963
G1 X106.455 Y91.176 E.04988
G1 X107.197 Y90.05 E.04228
M204 S1000
G1 X107.512 Y90.258 F10800
M204 S800
G1 F1200
G1 X107.644 Y90.058 E.00751
G1 X108.669 Y88.867 E.04927
G1 X110.055 Y87.645 E.05794
G1 X111.334 Y86.799 E.04808
G1 X112.695 Y86.122 E.04766
G1 X114.469 Y85.529 E.05865
M73 P6 R14
G1 X115.956 Y85.246 E.04746
G1 X117.467 Y85.149 E.04747
G1 X132.537 Y85.149 E.47251
G1 X134.2 Y85.267 E.05227
G1 X135.697 Y85.57 E.04789
G1 X137.14 Y86.054 E.04772
G1 X138.606 Y86.766 E.0511
G1 X139.981 Y87.673 E.05165
G1 X141.29 Y88.824 E.05465
G1 X142.412 Y90.139 E.0542
G1 X143.227 Y91.379 E.04653
G1 X143.877 Y92.693 E.04596
G1 X144.402 Y94.201 E.05007
G1 X144.732 Y95.796 E.05107
G1 X144.851 Y97.466 E.05249
G1 X144.848 Y112.628 E.47539
G1 X144.733 Y114.203 E.04951
M73 Q6 S14
G1 X144.418 Y115.741 E.04922
G1 X143.905 Y117.24 E.04968
G1 X143.212 Y118.647 E.04918
G1 X142.34 Y119.964 E.04952
G1 X141.299 Y121.167 E.04988
G1 X140.089 Y122.244 E.05079
G1 X138.781 Y123.134 E.0496
G1 X137.122 Y123.953 E.05801
G1 X135.658 Y124.44 E.04838
G1 X134.145 Y124.741 E.04837
G1 X132.533 Y124.851 E.05066
G1 X117.281 Y124.844 E.47822
G1 X115.796 Y124.732 E.04669
G1 X114.211 Y124.405 E.05074
G1 X112.737 Y123.895 E.0489
G1 X111.353 Y123.212 E.04839
G1 X110.036 Y122.34 E.04952
G1 X108.833 Y121.299 E.04988
G1 X107.756 Y120.089 E.05079
G1 X106.866 Y118.781 E.0496
G1 X106.047 Y117.121 E.05804
G1 X105.56 Y115.658 E.04835
G1 X105.259 Y114.145 E.04837
G1 X105.149 Y112.533 E.05066
G1 X105.156 Y97.281 E.47822
G1 X105.268 Y95.796 E.04669
G1 X105.595 Y94.211 E.05074
G1 X106.105 Y92.737 E.0489
G1 X106.787 Y91.354 E.04835
G1 X107.478 Y90.308 E.03931
M204 S1000
G1 X107.793 Y90.516 F10800
M204 S800
G1 F1200
G1 X107.951 Y90.276 E.00901
G1 X108.946 Y89.123 E.04775
G1 X110.275 Y87.952 E.05554
G1 X111.512 Y87.131 E.04655
G1 X112.851 Y86.466 E.04688
G1 X114.553 Y85.897 E.05627
M73 Q7 S14
G1 X115.992 Y85.622 E.04594
G1 X117.473 Y85.526 E.04653
M73 P7 R14
G1 X132.53 Y85.526 E.4721
G1 X134.138 Y85.639 E.05054
G1 X135.588 Y85.932 E.04638
G1 X137.008 Y86.407 E.04695
G1 X138.43 Y87.1 E.0496
G1 X139.762 Y87.98 E.05006
G1 X141.012 Y89.08 E.05221
G1 X142.104 Y90.356 E.05266
G1 X142.895 Y91.557 E.04509
G1 X143.533 Y92.849 E.04518
G1 X144.042 Y94.313 E.0486
G1 X144.361 Y95.86 E.04953
G1 X144.474 Y97.472 E.05067
G1 X144.471 Y112.608 E.47458
G1 X144.361 Y114.139 E.04813
G1 X144.051 Y115.653 E.04846
G1 X143.552 Y117.106 E.04817
G1 X142.88 Y118.469 E.04765
G1 X142.032 Y119.745 E.04804
G1 X141.023 Y120.91 E.04832
G1 X139.848 Y121.953 E.04926
G1 X138.58 Y122.815 E.04807
G1 X136.99 Y123.6 E.0556
G1 X135.573 Y124.072 E.04683
G1 X134.083 Y124.368 E.04763
G1 X132.527 Y124.474 E.0489
G1 X117.301 Y124.467 E.4774
G1 X115.859 Y124.361 E.04533
G1 X114.322 Y124.044 E.04921
G1 X112.893 Y123.552 E.04739
G1 X111.531 Y122.879 E.04763
G1 X110.255 Y122.032 E.04802
G1 X109.09 Y121.023 E.04832
G1 X108.047 Y119.848 E.04926
G1 X107.185 Y118.58 E.04807
G1 X106.4 Y116.99 E.0556
G1 X105.927 Y115.573 E.04684
G1 X105.632 Y114.083 E.04762
G1 X105.526 Y112.527 E.0489
G1 X105.533 Y97.301 E.4774
G1 X105.639 Y95.859 E.04533
