; generated by PrusaSlicer 2.9.2 on 2025-11-27 at 13:46:02 UTC


;
;
; 

; external perimeters extrusion width = 0.90mm
; perimeters extrusion width = 0.90mm
; infill extrusion width = 0.90mm
; solid infill extrusion width = 0.90mm
; top infill extrusion width = 0.80mm
; first layer extrusion width = 0.90mm

; external perimeters extrusion width = 0.90mm
; perimeters extrusion width = 0.90mm
; infill extrusion width = 0.90mm
; solid infill extrusion width = 0.90mm
; top infill extrusion width = 0.80mm
; first layer extrusion width = 0.90mm

; external perimeters extrusion width = 0.90mm
; perimeters extrusion width = 0.90mm
; infill extrusion width = 0.90mm
; solid infill extrusion width = 0.90mm
; top infill extrusion width = 0.80mm
; first layer extrusion width = 0.90mm

; external perimeters extrusion width = 0.90mm
; perimeters extrusion width = 0.90mm
; infill extrusion width = 0.90mm
; solid infill extrusion width = 0.90mm
; top infill extrusion width = 0.80mm
; first layer extrusion width = 0.90mm

; external perimeters extrusion width = 0.90mm
; perimeters extrusion width = 0.90mm
; infill extrusion width = 0.90mm
; solid infill extrusion width = 0.90mm
; top infill extrusion width = 0.80mm
; first layer extrusion width = 0.90mm

M73 P0 R31
M73 Q0 S31
M201 X1000 Y1000 Z200 E5000 ; sets maximum accelerations, mm/sec^2
M203 X200 Y200 Z12 E120 ; sets maximum feedrates, mm / sec
M204 S1250 T1250 ; sets acceleration (S) and retract acceleration (R), mm/sec^2
M205 X8.00 Y8.00 Z0.40 E4.50 ; sets the jerk limits, mm/sec
M205 S0 T0 ; sets the minimum extruding and travel feed rate, mm/sec

; printing object Extension_module_outer_mold_clampholder id:4 copy 0
; stop printing object Extension_module_outer_mold_clampholder id:4 copy 0
; printing object Extension_module_outer_mold_clampholder id:0 copy 0
; stop printing object Extension_module_outer_mold_clampholder id:0 copy 0
; printing object Extension_module_outer_mold_clampholder id:1 copy 0
; stop printing object Extension_module_outer_mold_clampholder id:1 copy 0
; printing object Extension_module_outer_mold_clampholder id:2 copy 0
; stop printing object Extension_module_outer_mold_clampholder id:2 copy 0
; printing object Extension_module_outer_mold_clampholder id:3 copy 0
; stop printing object Extension_module_outer_mold_clampholder id:3 copy 0

;TYPE:Custom
M862.3 P "MK3S" ; printer model check
M862.1 P0.8 ; nozzle diameter check
M115 U3.14.1 ; tell printer latest fw version
G90 ; use absolute coordinates
M83 ; extruder relative mode
M104 S205 ; set extruder temp
M140 S60 ; set bed temp
M190 S60 ; wait for bed temp
M109 S205 ; wait for extruder temp
G28 W ; home all without mesh bed level
G80 X57.7644 Y58.2644 W134.471 H93.4712 ; mesh bed levelling

G1 Z0.2 F720
G1 Y-3 F1000 ; go outside print area
G92 E0
G1 X60 E9 F1000 ; intro line
G1 X100 E12.5 F1000 ; intro line

G92 E0
M221 S95
G21 ; set units to millimeters
G90 ; use absolute coordinates
M83 ; use relative distances for extrusion

M900 K0.01 ; Filament gcode LA 1.5
; ; Filament gcode LA 1.0




M107
;LAYER_CHANGE
;Z:0.3
;HEIGHT:0.3
G1 E-.7 F2100
G1 Z.55 F720
G1 X63.16 Y64.457 F10800
G1 Z.3 F720
G1 E.7 F1200
M204 S800
;TYPE:Skirt/Brim
;WIDTH:0.9
G1 X64.855 Y62.873 E.24179
G1 X65.887 Y62.084 E.13539
G1 X67.517 Y61.037 E.20191
G1 X69.848 Y59.936 E.26868
G1 X71.745 Y59.309 E.20823
G1 X73.537 Y58.931 E.19088
G1 X74.575 Y58.789 E.10919
G1 X76.367 Y58.683 E.18709
G1 X173.633 Y58.683 E10.13736
G1 X175.786 Y58.826 E.22489
M73 P0 R30
G1 X178.644 Y59.424 E.30432
G1 X180.424 Y60.041 E.19635
G1 X183.04 Y61.368 E.30572
G1 X184.685 Y62.493 E.20771
G1 X186.097 Y63.708 E.19415
G1 X188.007 Y65.815 E.2964
G1 X189.132 Y67.46 E.20771
G1 X190.487 Y70.144 E.31336
G1 X191.125 Y72.011 E.20563
G1 X191.581 Y74.101 E.22295
G1 X191.818 Y76.946 E.29754
G1 X191.818 Y133.054 E5.84775
G1 X191.637 Y135.559 E.26176
G1 X191.2 Y137.721 E.22989
G1 X190.397 Y140.073 E.25903
G1 X189.366 Y142.154 E.24205
G1 X188.007 Y144.185 E.25469
G1 X186.411 Y145.994 E.25143
G1 X184.497 Y147.649 E.26372
G1 X182.552 Y148.925 E.24244
G1 X180.162 Y150.061 E.2758
G1 X178.255 Y150.691 E.20932
G1 X176.463 Y151.069 E.19088
G1 X175.425 Y151.211 E.10919
G1 X173.633 Y151.317 E.18709
G1 X117.446 Y151.318 E5.85598
G1 X115.214 Y151.174 E.23311
M73 P1 R30
M73 Q1 S31
G1 X113.371 Y150.837 E.19527
G1 X112.356 Y150.576 E.10923
G1 X110.427 Y149.897 E.21314
G1 X107.888 Y148.585 E.29786
G1 X106.315 Y147.507 E.19875
G1 X104.645 Y146.049 E.23105
G1 X63.506 Y104.911 E6.06355
G1 X61.993 Y103.185 E.23922
G1 X60.915 Y101.612 E.19875
G1 X60.38 Y100.687 E.11137
G1 X59.439 Y98.662 E.23273
G1 X58.809 Y96.755 E.20932
G1 X58.431 Y94.963 E.19088
G1 X58.186 Y92.251 E.2838
G1 X58.186 Y76.749 E1.61567
G1 X58.351 Y74.519 E.23305
G1 X58.801 Y72.276 E.23843
G1 X59.541 Y70.076 E.24191
G1 X60.575 Y67.948 E.24658
G1 X61.851 Y66.003 E.24244
G1 X63.083 Y64.549 E.19862
M204 S1000
;WIPE_START
G1 F8640
G1 X63.16 Y64.457 E-.0277
G1 X64.855 Y62.873 E-.53568
G1 X65.325 Y62.513 E-.13662
;WIPE_END
G1 Z.55 F720
G1 X66.615 Y67.589 F10800
G1 Z.3 F720
G1 E.7 F1200
M204 S800
G1 X66.725 Y67.461 E.01759
G1 X68.213 Y66.142 E.20724
G1 X69.74 Y65.131 E.19087
G1 X71.257 Y64.387 E.1761
G1 X73.123 Y63.768 E.2049
G1 X74.761 Y63.452 E.17387
G1 X76.45 Y63.34 E.17642
G1 X91.555 Y63.34 E1.57429
G1 X93.372 Y63.469 E.18985
G1 X95.031 Y63.805 E.17642
G1 X96.643 Y64.345 E.17718
G1 X98.262 Y65.135 E.18775
M73 Q1 S30
G1 X99.781 Y66.137 E.18966
G1 X101.216 Y67.398 E.1991
G1 X102.529 Y68.953 E.21211
G1 X103.374 Y70.247 E.16107
G1 X104.499 Y72.55 E.26713
G1 X105.658 Y70.191 E.27393
G1 X106.632 Y68.726 E.18335
G1 X107.763 Y67.422 E.1799
G1 X109.257 Y66.108 E.20737
G1 X110.694 Y65.157 E.1796
G1 X112.258 Y64.387 E.18169
G1 X114.177 Y63.754 E.2106
G1 X115.811 Y63.445 E.17332
G1 X117.423 Y63.341 E.16836
G1 X132.556 Y63.34 E1.57721
G1 X134.373 Y63.47 E.18986
G1 X136.08 Y63.818 E.18157
G1 X137.64 Y64.344 E.17158
G1 X139.26 Y65.133 E.1878
G1 X140.779 Y66.136 E.18971
G1 X142.177 Y67.359 E.19359
G1 X143.529 Y68.953 E.21784
G1 X144.399 Y70.291 E.16634
G1 X145.498 Y72.552 E.26201
G1 X146.658 Y70.191 E.27417
G1 X147.632 Y68.726 E.18335
G1 X148.763 Y67.422 E.1799
G1 X150.257 Y66.108 E.20737
G1 X151.694 Y65.157 E.1796
G1 X153.258 Y64.387 E.18169
G1 X155.178 Y63.754 E.2107
G1 X156.762 Y63.452 E.16806
G1 X158.424 Y63.341 E.1736
G1 X173.556 Y63.34 E1.5771
G1 X175.373 Y63.47 E.18986
G1 X177.081 Y63.818 E.18167
G1 X178.691 Y64.366 E.17725
G1 X180.307 Y65.161 E.1877
G1 X181.779 Y66.136 E.18402
G1 X183.177 Y67.359 E.19359
G1 X184.137 Y68.44 E.15068
G1 X185.399 Y70.292 E.23357
G1 X186.106 Y71.739 E.16785
G1 X186.677 Y73.402 E.18326
G1 X187.03 Y75.121 E.1829
G1 X187.159 Y76.917 E.18767
G1 X187.156 Y92.172 E1.58992
G1 X187.023 Y93.929 E.18364
G1 X186.684 Y95.574 E.17505
G1 X186.128 Y97.207 E.17979
G1 X185.368 Y98.763 E.18048
G1 X184.393 Y100.241 E.18454
G1 X183.263 Y101.553 E.18047
G1 X181.928 Y102.749 E.18681
G1 X180.449 Y103.759 E.18666
G1 X177.949 Y105 E.29089
G1 X180.309 Y106.161 E.27412
G1 X181.781 Y107.137 E.18408
G1 X183.177 Y108.36 E.19343
G1 X184.177 Y109.488 E.15711
G1 X185.349 Y111.203 E.21649
G1 X186.086 Y112.692 E.17316
G1 X186.663 Y114.352 E.18316
G1 X187.022 Y116.067 E.18262
G1 X187.159 Y117.918 E.19344
G1 X187.157 Y133.142 E1.58669
G1 X187.03 Y134.877 E.18131
M73 P2 R30
M73 Q2 S30
G1 X186.683 Y136.577 E.18083
G1 X186.107 Y138.259 E.1853
G1 X185.34 Y139.811 E.18043
G1 X184.362 Y141.282 E.1841
G1 X183.226 Y142.591 E.18064
G1 X181.929 Y143.748 E.18115
G1 X180.4 Y144.788 E.19273
G1 X178.665 Y145.645 E.20168
G1 X177.052 Y146.19 E.17745
G1 X175.36 Y146.532 E.17991
G1 X173.579 Y146.659 E.18609
G1 X158.218 Y146.651 E1.60097
G1 X156.563 Y146.521 E.17302
G1 X154.817 Y146.154 E.18595
G1 X153.192 Y145.586 E.17941
G1 X151.643 Y144.814 E.18038
G1 X150.216 Y143.86 E.1789
G1 X148.907 Y142.724 E.18064
G1 X147.717 Y141.385 E.1867
G1 X146.74 Y139.948 E.18111
G1 X145.504 Y137.446 E.29085
G1 X144.342 Y139.809 E.27445
G1 X143.362 Y141.282 E.18439
G1 X142.226 Y142.591 E.18064
G1 X140.886 Y143.782 E.18685
G1 X139.4 Y144.788 E.18703
G1 X137.665 Y145.645 E.20168
G1 X136.052 Y146.19 E.17745
G1 X134.36 Y146.532 E.17991
G1 X132.55 Y146.66 E.18911
G1 X117.218 Y146.651 E1.59795
G1 X115.616 Y146.529 E.16745
G1 X113.87 Y146.168 E.18582
G1 X112.193 Y145.586 E.18501
G1 X110.644 Y144.814 E.18038
G1 X109.174 Y143.828 E.18448
G1 X107.87 Y142.687 E.18059
G1 X106.751 Y141.428 E.17555
G1 X105.712 Y139.9 E.19258
G1 X104.834 Y138.114 E.20742
G1 X104.297 Y136.502 E.17708
G1 X103.968 Y134.86 E.17454
G1 X103.84 Y133.05 E.18911
G1 X103.85 Y117.686 E1.60128
G1 X103.971 Y116.115 E.16422
G1 X104.318 Y114.421 E.18022
G1 X104.893 Y112.742 E.18497
G1 X105.657 Y111.193 E.18001
G1 X106.632 Y109.726 E.18358
G1 X107.764 Y108.421 E.18005
G1 X109.212 Y107.142 E.20136
G1 X110.694 Y106.157 E.18546
G1 X113.042 Y105 E.27281
G1 X110.691 Y103.842 E.27314
G1 X109.26 Y102.894 E.1789
G1 X107.869 Y101.687 E.19194
G1 X106.717 Y100.385 E.18119
G1 X105.74 Y98.948 E.18111
G1 X104.504 Y96.446 E.29085
G1 X103.341 Y98.81 E.27459
G1 X102.393 Y100.241 E.1789
G1 X101.263 Y101.553 E.18047
G1 X99.929 Y102.749 E.18673
G1 X98.399 Y103.788 E.19275
G1 X96.611 Y104.667 E.20765
G1 X95 Y105.204 E.17699
G1 X93.307 Y105.539 E.17987
G1 X91.55 Y105.66 E.18355
G1 X76.187 Y105.65 E1.60118
G1 X74.564 Y105.522 E.16968
G1 X72.871 Y105.169 E.18024
G1 X71.242 Y104.607 E.1796
G1 X69.737 Y103.868 E.17475
G1 X68.259 Y102.893 E.18454
G1 X66.947 Y101.764 E.1804
G1 X65.718 Y100.386 E.19244
G1 X64.712 Y98.9 E.18703
G1 X63.855 Y97.165 E.20168
G1 X63.297 Y95.502 E.18282
G1 X62.961 Y93.808 E.17999
G1 X62.84 Y92.05 E.18366
G1 X62.849 Y76.718 E1.59795
G1 X62.971 Y75.115 E.16755
G1 X63.332 Y73.368 E.18592
G1 X63.914 Y71.692 E.18491
G1 X64.658 Y70.191 E.1746
G1 X65.601 Y68.767 E.17801
G1 X66.536 Y67.68 E.14944
M204 S1000
G1 X67.168 Y68.226 F10800
M204 S800
G1 F1200
G1 X67.338 Y68.029 E.02712
G1 X68.744 Y66.788 E.19545
G1 X70.133 Y65.868 E.17364
G1 X71.548 Y65.171 E.1644
G1 X73.359 Y64.57 E.19887
G1 X74.892 Y64.277 E.16267
G1 X76.463 Y64.175 E.16408
G1 X91.541 Y64.175 E1.57148
G1 X93.233 Y64.294 E.17678
G1 X94.839 Y64.619 E.17078
G1 X96.349 Y65.128 E.16608
G1 X97.87 Y65.873 E.17652
G1 X99.295 Y66.818 E.17821
G1 X100.642 Y68.007 E.18726
G1 X101.501 Y68.981 E.13535
G1 X102.66 Y70.683 E.21461
G1 X103.325 Y72.037 E.15722
G1 X103.85 Y73.547 E.16662
G1 X104.161 Y75.023 E.15721
G1 X104.839 Y75.023 E.07066
G1 X105.144 Y73.566 E.15514
G1 X105.674 Y72.04 E.16836
G1 X106.395 Y70.587 E.16906
G1 X107.282 Y69.252 E.16705
G1 X108.338 Y68.029 E.16841
G1 X109.744 Y66.788 E.19545
G1 X111.089 Y65.894 E.16832
G1 X112.548 Y65.171 E.16971
G1 X114.413 Y64.556 E.20467
G1 X115.891 Y64.277 E.15676
G1 X117.437 Y64.176 E.16147
G1 X132.541 Y64.175 E1.57419
G1 X134.286 Y64.301 E.18234
G1 X135.839 Y64.619 E.16522
G1 X137.3 Y65.108 E.16057
G1 X138.824 Y65.847 E.17652
G1 X140.25 Y66.784 E.17784
G1 X141.606 Y67.97 E.18776
G1 X142.501 Y68.982 E.1408
G1 X143.66 Y70.683 E.21452
G1 X144.325 Y72.037 E.15722
G1 X144.85 Y73.547 E.16662
G1 X145.161 Y75.023 E.15721
G1 X145.839 Y75.023 E.07066
G1 X146.144 Y73.566 E.15514
G1 X146.674 Y72.04 E.16836
G1 X147.395 Y70.587 E.16906
G1 X148.282 Y69.252 E.16705
G1 X149.338 Y68.029 E.16841
G1 X150.744 Y66.788 E.19545
G1 X152.089 Y65.894 E.16832
G1 X153.548 Y65.171 E.16971
G1 X155.413 Y64.556 E.20467
G1 X156.891 Y64.277 E.15676
G1 X158.437 Y64.176 E.16147
G1 X173.541 Y64.175 E1.57419
G1 X175.286 Y64.301 E.18234
G1 X176.838 Y64.618 E.16509
G1 X178.349 Y65.128 E.16621
G1 X179.87 Y65.873 E.17652
G1 X181.25 Y66.783 E.17228
M73 P3 R30
G1 X182.606 Y67.97 E.18782
G1 X183.501 Y68.981 E.14073
G1 X184.66 Y70.683 E.21461
G1 X185.325 Y72.037 E.15722
M73 Q3 S30
G1 X185.865 Y73.599 E.17225
G1 X186.198 Y75.209 E.17135
G1 X186.324 Y76.933 E.18016
G1 X186.321 Y92.156 E1.58659
G1 X186.199 Y93.789 E.17067
G1 X185.884 Y95.33 E.16393
G1 X185.346 Y96.912 E.17415
G1 X184.63 Y98.37 E.16929
G1 X183.712 Y99.757 E.17335
G1 X182.649 Y100.986 E.16936
G1 X181.393 Y102.107 E.17546
G1 X180.003 Y103.052 E.17518
G1 X178.321 Y103.883 E.19553
G1 X176.811 Y104.389 E.16598
G1 X175.483 Y104.657 E.1412
G1 X175.482 Y105.34 E.07118
G1 X176.838 Y105.618 E.14427
G1 X178.349 Y106.128 E.16621
G1 X179.87 Y106.873 E.17652
G1 X181.295 Y107.818 E.17821
G1 X182.605 Y108.97 E.18181
G1 X183.52 Y110.005 E.14398
G1 X184.635 Y111.64 E.20626
G1 X185.325 Y113.037 E.16239
G1 X185.865 Y114.599 E.17225
G1 X186.198 Y116.209 E.17135
G1 X186.324 Y117.933 E.18016
G1 X186.322 Y133.126 E1.58346
G1 X186.199 Y134.788 E.17369
G1 X185.87 Y136.381 E.16953
G1 X185.326 Y137.96 E.17406
G1 X184.604 Y139.416 E.16938
G1 X183.712 Y140.756 E.16777
G1 X182.649 Y141.986 E.16943
G1 X181.393 Y143.107 E.17546
G1 X180.003 Y144.052 E.17518
G1 X178.321 Y144.883 E.19553
G1 X176.812 Y145.389 E.16588
G1 X175.222 Y145.708 E.16902
G1 X173.536 Y145.825 E.17614
G1 X158.234 Y145.815 E1.59482
G1 X156.707 Y145.698 E.15962
G1 X155.065 Y145.355 E.17483
G1 X153.539 Y144.826 E.16833
G1 X152.085 Y144.104 E.16919
G1 X150.702 Y143.18 E.17335
G1 X149.477 Y142.113 E.16931
G1 X148.361 Y140.852 E.1755
G1 X147.449 Y139.504 E.16963
G1 X146.596 Y137.768 E.20159
G1 X146.111 Y136.312 E.15995
G1 X145.843 Y134.982 E.1414
G1 X145.161 Y134.98 E.07108
G1 X144.87 Y136.381 E.14913
G1 X144.346 Y137.912 E.16865
G1 X143.63 Y139.37 E.16929
G1 X142.712 Y140.757 E.17335
G1 X141.649 Y141.986 E.16936
G1 X140.393 Y143.107 E.17546
G1 X139.003 Y144.052 E.17518
G1 X137.321 Y144.883 E.19553
G1 X135.812 Y145.389 E.16588
G1 X134.222 Y145.708 E.16902
G1 X132.536 Y145.825 E.17614
G1 X117.234 Y145.815 E1.59482
G1 X115.706 Y145.698 E.15972
G1 X114.116 Y145.369 E.16923
G1 X112.539 Y144.825 E.17386
G1 X111.085 Y144.104 E.16915
G1 X109.702 Y143.18 E.17335
G1 X108.477 Y142.112 E.16938
G1 X107.394 Y140.893 E.16995
G1 X106.448 Y139.503 E.17524
G1 X105.617 Y137.821 E.19553
G1 X105.111 Y136.312 E.16588
G1 X104.792 Y134.722 E.16902
G1 X104.675 Y133.036 E.17614
G1 X104.686 Y117.703 E1.59805
G1 X104.802 Y116.207 E.15639
G1 X105.131 Y114.616 E.16933
G1 X105.655 Y113.087 E.16846
G1 X106.369 Y111.631 E.16901
G1 X107.282 Y110.251 E.17246
G1 X108.338 Y109.029 E.16833
G1 X109.744 Y107.788 E.19545
G1 X111.089 Y106.894 E.16832
G1 X112.549 Y106.171 E.1698
G1 X114.36 Y105.57 E.19887
G1 X115.521 Y105.346 E.12323
G1 X115.527 Y104.662 E.07129
G1 X114.065 Y104.355 E.1557
G1 X112.587 Y103.845 E.16295
G1 X111.13 Y103.13 E.16915
G1 X109.744 Y102.212 E.17327
G1 X108.477 Y101.112 E.17487
G1 X107.361 Y99.852 E.17542
G1 X106.449 Y98.504 E.16963
G1 X105.596 Y96.768 E.20159
G1 X105.111 Y95.312 E.15995
G1 X104.843 Y93.982 E.1414
G1 X104.161 Y93.98 E.07108
G1 X103.87 Y95.381 E.14913
G1 X103.346 Y96.912 E.16865
G1 X102.604 Y98.416 E.17479
G1 X101.712 Y99.756 E.16777
G1 X100.649 Y100.986 E.16943
G1 X99.393 Y102.107 E.17546
G1 X98.004 Y103.052 E.17509
G1 X96.269 Y103.904 E.20145
G1 X94.762 Y104.402 E.16542
G1 X93.223 Y104.708 E.16354
G1 X91.536 Y104.825 E.17625
G1 X76.203 Y104.814 E1.59805
G1 X74.707 Y104.698 E.15639
G1 X73.116 Y104.369 E.16933
G1 X71.587 Y103.845 E.16846
G1 X70.13 Y103.13 E.16915
G1 X68.743 Y102.212 E.17335
G1 X67.514 Y101.149 E.16936
G1 X66.393 Y99.893 E.17546
G1 X65.448 Y98.503 E.17518
G1 X64.617 Y96.821 E.19553
G1 X64.111 Y95.312 E.16588
G1 X63.792 Y93.722 E.16902
G1 X63.675 Y92.036 E.17614
G1 X63.685 Y76.734 E1.59482
G1 X63.802 Y75.207 E.15962
G1 X64.145 Y73.565 E.17483
G1 X64.674 Y72.04 E.16823
G1 X65.395 Y70.587 E.16906
G1 X66.282 Y69.252 E.16705
M73 P3 R29
G1 X67.09 Y68.316 E.12887
M204 S1000
;WIPE_START
G1 F8640
G1 X67.168 Y68.226 E-.0275
G1 X67.338 Y68.029 E-.06008
G1 X68.744 Y66.788 E-.43302
G1 X69.392 Y66.359 E-.1794
;WIPE_END
G1 Z.55 F720
G1 X146.626 Y75.349 F10800
G1 Z.3 F720
G1 E.7 F1200
M204 S800
G1 X146.943 Y73.812 E.16356
G1 X147.436 Y72.385 E.15735
G1 X148.107 Y71.025 E.15806
G1 X148.933 Y69.776 E.15607
G1 X149.913 Y68.636 E.15668
G1 X151.275 Y67.434 E.18933
G1 X152.528 Y66.605 E.15659
G1 X153.84 Y65.955 E.1526
G1 X155.595 Y65.372 E.19274
G1 X157.02 Y65.103 E.15114
G1 X158.476 Y65.011 E.15205
G1 X173.526 Y65.011 E1.56856
G1 X175.147 Y65.125 E.16936
G1 X176.598 Y65.419 E.1543
