; generated by PrusaSlicer 2.9.2 on 2025-11-27 at 14:43:20 UTC


;
;
; 

; external perimeters extrusion width = 1.00mm
; perimeters extrusion width = 1.00mm
; infill extrusion width = 0.90mm
; solid infill extrusion width = 0.90mm
; top infill extrusion width = 0.80mm
; support material extrusion width = 0.70mm
; first layer extrusion width = 0.90mm

; external perimeters extrusion width = 1.00mm
; perimeters extrusion width = 1.00mm
; infill extrusion width = 0.90mm
; solid infill extrusion width = 0.90mm
; top infill extrusion width = 0.80mm
; support material extrusion width = 0.70mm
; first layer extrusion width = 0.90mm

; external perimeters extrusion width = 1.00mm
; perimeters extrusion width = 1.00mm
; infill extrusion width = 0.90mm
; solid infill extrusion width = 0.90mm
; top infill extrusion width = 0.80mm
; support material extrusion width = 0.70mm
; first layer extrusion width = 0.90mm

; external perimeters extrusion width = 1.00mm
; perimeters extrusion width = 1.00mm
; infill extrusion width = 0.90mm
; solid infill extrusion width = 0.90mm
; top infill extrusion width = 0.80mm
; support material extrusion width = 0.70mm
; first layer extrusion width = 0.90mm

M73 P0 R94
M73 Q0 S95
M201 X1000 Y1000 Z200 E5000 ; sets maximum accelerations, mm/sec^2
M203 X200 Y200 Z12 E120 ; sets maximum feedrates, mm / sec
M204 S1250 T1250 ; sets acceleration (S) and retract acceleration (R), mm/sec^2
M205 X8.00 Y8.00 Z0.40 E4.50 ; sets the jerk limits, mm/sec
M205 S0 T0 ; sets the minimum extruding and travel feed rate, mm/sec

; printing object Extension_module_outer_mold_withclips id:0 copy 0
; stop printing object Extension_module_outer_mold_withclips id:0 copy 0
; printing object Extension_module_outer_mold id:2 copy 0
; stop printing object Extension_module_outer_mold id:2 copy 0
; printing object Extension_module_outer_mold id:1 copy 0
; stop printing object Extension_module_outer_mold id:1 copy 0
; printing object Extension_module_outer_mold_withclips id:3 copy 0
; stop printing object Extension_module_outer_mold_withclips id:3 copy 0

;TYPE:Custom
M862.3 P "MK3S" ; printer model check
M862.1 P0.8 ; nozzle diameter check
M115 U3.14.1 ; tell printer latest fw version
G90 ; use absolute coordinates
M83 ; extruder relative mode
M104 S205 ; set extruder temp
M140 S60 ; set bed temp
M190 S60 ; wait for bed temp
M109 S205 ; wait for extruder temp
G28 W ; home all without mesh bed level
G80 X57.5923 Y68.6396 W134.098 H70.0815 ; mesh bed levelling

G1 Z0.2 F720
G1 Y-3 F1000 ; go outside print area
G92 E0
G1 X60 E9 F1000 ; intro line
G1 X100 E12.5 F1000 ; intro line

G92 E0
M221 S95
G21 ; set units to millimeters
G90 ; use absolute coordinates
M83 ; use relative distances for extrusion

M900 K0.01 ; Filament gcode LA 1.5
; ; Filament gcode LA 1.0




M107
;LAYER_CHANGE
;Z:0.3
;HEIGHT:0.3
G1 E-.7 F2100
G1 Z.55 F720
G1 X60.426 Y71.819 F10800
G1 Z.3 F720
G1 E.7 F1200
M204 S800
;TYPE:Skirt/Brim
;WIDTH:0.9
G1 X61.877 Y70.598 E.19765
G1 X62.967 Y69.979 E.13064
G1 X64.156 Y69.522 E.13276
G1 X66.59 Y69.095 E.25755
G1 X99.694 Y69.057 E3.4502
G1 X183.06 Y69.569 E8.68882
G1 X184.029 Y69.716 E.10215
G1 X185.191 Y70.068 E.12654
G1 X186.415 Y70.629 E.14033
G1 X187.313 Y71.214 E.1117
G1 X188.433 Y72.205 E.15586
G1 X188.988 Y72.864 E.0898
G1 X189.724 Y74.06 E.14636
G1 X190.109 Y74.879 E.09432
G1 X190.364 Y75.642 E.08385
G1 X190.606 Y76.983 E.14202
G1 X190.657 Y77.846 E.0901
G1 X191.272 Y97.287 E2.02721
G1 X191.272 Y123.154 E2.69594
G1 X190.949 Y130.066 E.72118
G1 X190.813 Y131.184 E.11738
G1 X190.336 Y132.825 E.17811
G1 X189.559 Y134.335 E.17699
G1 X188.329 Y135.801 E.19945
G1 X187.702 Y136.335 E.08584
G1 X186.55 Y137.096 E.1439
G1 X185.497 Y137.56 E.11993
G1 X183.746 Y137.998 E.18812
G1 X182.924 Y138.101 E.08634
G1 X99.859 Y138.303 E8.65731
G1 X67.255 Y138.303 E3.39809
G1 X65.771 Y138.163 E.15535
G1 X64.627 Y137.915 E.122
G1 X63.019 Y137.256 E.18112
M73 Q0 S94
G1 X62.344 Y136.854 E.08188
G1 X61.383 Y136.121 E.12597
G1 X60.8 Y135.554 E.08476
G1 X59.696 Y134.1 E.19027
G1 X59.166 Y133.04 E.12352
G1 X58.83 Y132.163 E.09788
G1 X58.544 Y130.884 E.13659
G1 X58.028 Y126.603 E.44941
G1 X58.032 Y77.421 E5.1259
G1 X58.217 Y75.92 E.15762
G1 X58.449 Y75.078 E.09103
G1 X58.941 Y73.907 E.13238
G1 X59.323 Y73.227 E.08129
G1 X60.345 Y71.907 E.17399
M204 S1000
;WIPE_START
G1 F8640
G1 X60.426 Y71.819 E-.02762
G1 X61.877 Y70.598 E-.43788
G1 X62.76 Y70.097 E-.2345
;WIPE_END
G1 Z.55 F720
; printing object Extension_module_outer_mold_withclips id:3 copy 0
G1 X82.623 Y129.242 F10800
G1 Z.3 F720
G1 E.7 F1200
M204 S800
;TYPE:Support material interface
;WIDTH:0.7
G1 X82.701 Y128.957 E.02343
G1 X82.855 Y129.299 E.02974
G1 X82.919 Y129.709 E.0329
G1 X82.912 Y129.858 E.01183
G1 X82.583 Y129.53 E.03683
G1 X82.601 Y129.898 E.02921
G1 X82.753 Y130.413 E.04257
G1 X82.861 Y130.144 E.02298
M204 S1000
;WIPE_START
G1 F8640
G1 X82.753 Y130.413 E-.06693
G1 X82.601 Y129.898 E-.12399
G1 X82.583 Y129.53 E-.08507
G1 X82.912 Y129.858 E-.10727
G1 X82.919 Y129.709 E-.03444
G1 X82.855 Y129.299 E-.09582
G1 X82.701 Y128.957 E-.08661
G1 X82.623 Y129.242 E-.06823
;WIPE_END
G1 E-.03164 F2100
G1 Z.55 F720
G1 X82.634 Y126.803 F10800
G1 Z.3 F720
G1 E.7 F1200
M204 S800
G1 X82.831 Y127 E.02209
G1 X82.908 Y126.316 E.05457
G1 X82.7 Y125.722 E.04989
G1 X82.594 Y126.516 E.06351
M204 S1000
;WIPE_START
G1 F8640
G1 X82.7 Y125.722 E-.18496
G1 X82.908 Y126.316 E-.14532
G1 X82.831 Y127 E-.15894
G1 X82.634 Y126.803 E-.06433
;WIPE_END
G1 E-.14645 F2100
G1 Z.55 F720
G1 X82.883 Y120.109 F10800
G1 Z.3 F720
G1 E.7 F1200
M204 S800
G1 X82.886 Y119.731 E.02997
G1 X82.88 Y119.818 E.00691
M204 S1000
;WIPE_START
G1 F8640
G1 X82.886 Y119.731 E-.02014
G1 X82.883 Y120.109 E-.08728
;WIPE_END
G1 E-.59258 F2100
G1 Z.55 F720
G1 X82.903 Y116.978 F10800
G1 Z.3 F720
G1 E.7 F1200
M204 S800
G1 X82.886 Y116.498 E.03808
G1 X82.883 Y116.893 E.03132
M204 S1000
;WIPE_START
G1 F8640
G1 X82.886 Y116.498 E-.09121
G1 X82.903 Y116.978 E-.1109
;WIPE_END
G1 E-.49789 F2100
G1 Z.55 F720
G1 X82.904 Y113.748 F10800
G1 Z.3 F720
G1 E.7 F1200
M204 S800
G1 X82.887 Y113.268 E.03808
G1 X82.884 Y113.663 E.03132
M204 S1000
;WIPE_START
G1 F8640
G1 X82.887 Y113.268 E-.09121
G1 X82.904 Y113.748 E-.1109
;WIPE_END
G1 E-.49789 F2100
G1 Z.55 F720
G1 X82.871 Y110.706 F10800
G1 Z.3 F720
G1 E.7 F1200
M204 S800
G1 X82.753 Y111.013 E.02607
G1 X82.601 Y110.498 E.04257
G1 X82.583 Y110.087 E.03261
G1 X82.915 Y110.419 E.03722
G1 X82.919 Y110.309 E.00873
G1 X82.855 Y109.899 E.0329
G1 X82.7 Y109.555 E.02991
G1 X82.63 Y109.8 E.0202
M204 S1000
;WIPE_START
G1 F8640
G1 X82.7 Y109.555 E-.05883
G1 X82.855 Y109.899 E-.08712
G1 X82.919 Y110.309 E-.09582
G1 X82.915 Y110.419 E-.02542
G1 X82.583 Y110.087 E-.10841
G1 X82.601 Y110.498 E-.09499
G1 X82.753 Y111.013 E-.12399
G1 X82.871 Y110.706 E-.07594
;WIPE_END
G1 E-.02948 F2100
G1 Z.55 F720
G1 X82.903 Y107.278 F10800
G1 Z.3 F720
G1 E.7 F1200
M204 S800
G1 X82.873 Y106.737 E.04296
G1 X82.882 Y107.193 E.03616
M204 S1000
;WIPE_START
G1 F8640
G1 X82.873 Y106.737 E-.10531
G1 X82.903 Y107.278 E-.12511
;WIPE_END
G1 E-.46958 F2100
G1 Z.55 F720
G1 X82.902 Y104.047 F10800
G1 Z.3 F720
G1 E.7 F1200
M204 S800
G1 X82.873 Y103.503 E.04319
G1 X82.882 Y103.962 E.0364
M204 S1000
;WIPE_START
G1 F8640
G1 X82.873 Y103.503 E-.106
G1 X82.902 Y104.047 E-.12579
;WIPE_END
G1 E-.46821 F2100
G1 Z.55 F720
G1 X82.875 Y100.658 F10800
G1 Z.3 F720
G1 E.7 F1200
M204 S800
G1 X82.916 Y100.7 E.00465
G1 X82.875 Y100.279 E.03353
G1 X82.875 Y100.367 E.00698
M204 S1000
;WIPE_START
G1 F8640
G1 X82.875 Y100.279 E-.02032
G1 X82.916 Y100.7 E-.09767
G1 X82.875 Y100.658 E-.01355
;WIPE_END
G1 E-.56846 F2100
G1 Z.55 F720
G1 X82.613 Y97.619 F10800
G1 Z.3 F720
G1 E.7 F1200
M204 S800
G1 X82.848 Y97.854 E.02635
G1 X82.908 Y97.216 E.0508
G1 X82.702 Y96.625 E.04962
G1 X82.589 Y97.33 E.0566
M204 S1000
;WIPE_START
G1 F8640
G1 X82.702 Y96.625 E-.16486
G1 X82.908 Y97.216 E-.14452
G1 X82.848 Y97.854 E-.14797
G1 X82.613 Y97.619 E-.07674
;WIPE_END
G1 E-.16591 F2100
G1 Z.55 F720
G1 X82.606 Y93.786 F10800
G1 Z.3 F720
G1 E.7 F1200
M204 S800
G1 X82.605 Y94.354 E.04503
G1 X82.753 Y94.847 E.04081
G1 X82.919 Y94.142 E.05742
G1 X82.833 Y93.673 E.0378
G1 X82.661 Y93.501 E.01928
M204 S1000
;WIPE_START
G1 F8640
G1 X82.833 Y93.673 E-.05617
G1 X82.919 Y94.142 E-.1101
G1 X82.753 Y94.847 E-.16724
G1 X82.605 Y94.354 E-.11885
G1 X82.606 Y93.786 E-.13115
;WIPE_END
G1 E-.11649 F2100
G1 Z.55 F720
G1 X82.879 Y91.268 F10800
G1 Z.3 F720
G1 E.7 F1200
M204 S800
G1 X82.753 Y91.614 E.02919
G1 X82.605 Y91.121 E.04081
G1 X82.59 Y90.653 E.03712
G1 X82.918 Y90.98 E.03672
G1 X82.908 Y90.749 E.01833
G1 X82.702 Y90.158 E.04962
G1 X82.635 Y90.365 E.01725
M204 S1000
;WIPE_START
G1 F8640
G1 X82.702 Y90.158 E-.05024
G1 X82.908 Y90.749 E-.14452
G1 X82.918 Y90.98 E-.05339
G1 X82.59 Y90.653 E-.10694
G1 X82.605 Y91.121 E-.10812
G1 X82.753 Y91.614 E-.11885
G1 X82.879 Y91.268 E-.08502
;WIPE_END
G1 E-.03292 F2100
G1 Z.55 F720
G1 X82.606 Y87.891 F10800
G1 Z.3 F720
G1 E.7 F1200
M204 S800
G1 X82.853 Y88.138 E.02769
G1 X82.908 Y87.516 E.0495
G1 X82.702 Y86.925 E.04962
G1 X82.587 Y87.601 E.05436
M204 S1000
;WIPE_START
G1 F8640
G1 X82.702 Y86.925 E-.15833
G1 X82.908 Y87.516 E-.14452
G1 X82.853 Y88.138 E-.14418
G1 X82.606 Y87.891 E-.08066
;WIPE_END
G1 E-.17231 F2100
G1 Z.55 F720
G1 X82.609 Y84.069 F10800
G1 Z.3 F720
G1 E.7 F1200
M204 S800
G1 X82.605 Y84.654 E.04638
G1 X82.753 Y85.147 E.04081
G1 X82.919 Y84.442 E.05742
G1 X82.821 Y83.94 E.04055
G1 X82.667 Y83.785 E.01732
M204 S1000
;WIPE_START
G1 F8640
G1 X82.821 Y83.94 E-.05045
G1 X82.919 Y84.442 E-.1181
G1 X82.753 Y85.147 E-.16724
G1 X82.605 Y84.654 E-.11885
G1 X82.609 Y84.069 E-.13508
;WIPE_END
G1 E-.11028 F2100
G1 Z.55 F720
G1 X82.883 Y81.549 F10800
G1 Z.3 F720
G1 E.7 F1200
M204 S800
G1 X82.753 Y81.914 E.03072
G1 X82.605 Y81.421 E.04081
G1 X82.593 Y80.935 E.03854
G1 X82.919 Y81.26 E.03649
G1 X82.908 Y81.05 E.01667
M73 P0 R93
G1 X82.702 Y80.458 E.04969
G1 X82.638 Y80.647 E.01582
M204 S1000
;WIPE_START
G1 F8640
G1 X82.702 Y80.458 E-.04607
G1 X82.908 Y81.05 E-.14473
G1 X82.919 Y81.26 E-.04856
G1 X82.593 Y80.935 E-.10629
G1 X82.605 Y81.421 E-.11225
G1 X82.753 Y81.914 E-.11885
G1 X82.883 Y81.549 E-.08947
;WIPE_END
G1 E-.03378 F2100
G1 Z.55 F720
G1 X82.747 Y78.691 F10800
G1 Z.3 F720
G1 E.7 F1200
M204 S800
G1 X82.539 Y78.103 E.04945
G1 X82.858 Y78.422 E.03576
G1 X82.908 Y77.816 E.04821
G1 X82.635 Y77.128 E.05868
G1 X82.522 Y77.813 E.05504
M204 S1000
;WIPE_START
G1 F8640
G1 X82.635 Y77.128 E-.16031
G1 X82.908 Y77.816 E-.17091
G1 X82.858 Y78.422 E-.1404
G1 X82.539 Y78.103 E-.10417
G1 X82.719 Y78.61 E-.12421
;WIPE_END
G1 Z.55 F720
G1 X86.228 Y73.108 F10800
G1 Z.3 F720
G1 E.7 F1200
M204 S800
;TYPE:Support material
;WIDTH:0.9
G1 X87.214 Y73.629 E.11623
G1 X87.709 Y73.984 E.06349
G1 X88.624 Y74.976 E.14065
G1 X89.14 Y75.941 E.11405
G1 X89.472 Y77.306 E.14641
G1 X89.488 Y78.09 E.08173
G1 X89.365 Y78.974 E.09302
G1 X89.223 Y79.345 E.0414
G1 X89.409 Y79.904 E.0614
G1 X89.539 Y80.658 E.07974
G1 X89.549 Y81.441 E.08161
G1 X89.409 Y82.382 E.09915
G1 X89.274 Y82.73 E.0389
G1 X89.539 Y83.891 E.12412
G1 X89.549 Y84.675 E.08172
G1 X89.409 Y85.616 E.09915
G1 X89.274 Y85.964 E.0389
G1 X89.539 Y87.125 E.12412
G1 X89.549 Y87.908 E.08161
G1 X89.409 Y88.849 E.09915
G1 X89.274 Y89.197 E.0389
G1 X89.539 Y90.358 E.12412
G1 X89.549 Y91.141 E.08161
G1 X89.409 Y92.082 E.09915
G1 X89.274 Y92.43 E.0389
G1 X89.539 Y93.591 E.12412
G1 X89.549 Y94.375 E.08172
G1 X89.409 Y95.316 E.09915
G1 X89.274 Y95.664 E.0389
G1 X89.539 Y96.825 E.12412
G1 X89.549 Y97.579 E.07859
G1 X89.432 Y98.507 E.09748
G1 X89.609 Y98.917 E.04654
G1 X89.793 Y99.741 E.08799
G1 X89.852 Y100.461 E.07529
G1 X89.766 Y101.249 E.08262
G1 X89.557 Y102.053 E.08658
G1 X89.797 Y103.014 E.10323
G1 X89.854 Y103.753 E.07725
G1 X89.762 Y104.499 E.07834
G1 X89.558 Y105.287 E.08484
G1 X89.797 Y106.247 E.10311
G1 X89.854 Y106.986 E.07725
G1 X89.758 Y107.764 E.0817
G1 X89.396 Y108.925 E.12675
G1 X89.539 Y109.758 E.08809
G1 X89.502 Y111.628 E.19494
G1 X89.724 Y112.307 E.07445
G1 X89.84 Y113.092 E.0827
G1 X89.848 Y113.864 E.08046
G1 X89.561 Y115.068 E.129
G1 X89.718 Y115.5 E.04791
G1 X89.84 Y116.325 E.08692
G1 X89.849 Y117.145 E.08547
G1 X89.566 Y118.288 E.12272
G1 X89.752 Y118.892 E.06587
G1 X89.84 Y119.584 E.0727
G1 X89.848 Y120.331 E.07786
G1 X89.693 Y121.154 E.08728
G1 X90.03 Y122.269 E.1214
G1 X90.105 Y123.298 E.10753
G1 X90.021 Y124.166 E.09089
G1 X89.475 Y125.545 E.15458
G1 X89.549 Y126.708 E.12146
G1 X89.409 Y127.649 E.09915
G1 X89.274 Y127.997 E.0389
G1 X89.539 Y129.158 E.12412
G1 X89.549 Y129.941 E.08161
G1 X89.409 Y130.882 E.09915
G1 X89.114 Y131.642 E.08497
G1 X88.643 Y132.51 E.10293
G1 X87.926 Y133.26 E.10814
G1 X86.72 Y134.069 E.15135
G1 X85.566 Y134.439 E.1263
G1 X84.025 Y134.508 E.16077
G1 X82.949 Y134.214 E.11625
G1 X81.986 Y133.74 E.11187
G1 X81.549 Y133.411 E.05701
G1 X80.994 Y132.881 E.07998
G1 X79.273 Y130.602 E.29764
G1 X79.273 Y130.137 E.04846
G1 X79.68 Y129.83 E.05313
G1 X79.273 Y129.586 E.04946
G1 X79.273 Y129.059 E.05493
G1 X80.13 Y127.63 E.17366
G1 X80.15 Y126.164 E.15281
G1 X79.347 Y125.674 E.09804
G1 X80.193 Y124.285 E.1695
G1 X79.671 Y124.101 E.05769
G1 X80.451 Y121.883 E.24504
G1 X79.928 Y120.787 E.12657
G1 X80.476 Y120.033 E.09715
G1 X79.922 Y119.271 E.09819
G1 X80.299 Y118.35 E.10372
G1 X79.799 Y117.371 E.11457
G1 X79.438 Y117.223 E.04066
G1 X80.299 Y115.116 E.23723
G1 X79.907 Y114.349 E.08977
G1 X80.22 Y113.919 E.05543
G1 X79.583 Y113.662 E.07159
G1 X80.122 Y112.324 E.15034
G1 X79.566 Y111.586 E.0963
G1 X80.191 Y110.725 E.11089
G1 X79.273 Y110.166 E.11202
G1 X79.273 Y109.628 E.05607
G1 X80.341 Y107.877 E.21376
G1 X79.347 Y107.441 E.11313
G1 X80.286 Y105.301 E.24356
G1 X79.942 Y104.601 E.08129
G1 X80.476 Y103.867 E.0946
G1 X79.865 Y103.026 E.10834
G1 X80.277 Y102.088 E.10678
G1 X79.904 Y101.365 E.08479
G1 X79.406 Y101.173 E.05563
G1 X80.095 Y99.378 E.20039
G1 X79.551 Y98.673 E.09281
G1 X80.518 Y97.343 E.17138
G1 X79.344 Y96.658 E.14166
G1 X80.11 Y95.344 E.15852
G1 X80.11 Y94.566 E.08109
G1 X79.273 Y94.078 E.10098
G1 X79.273 Y93.545 E.05555
G1 X80.11 Y92.111 E.17305
G1 X80.11 Y91.437 E.07025
G1 X80.518 Y90.876 E.0723
G1 X79.344 Y90.191 E.14166
G1 X80.11 Y88.878 E.15843
G1 X80.11 Y88.099 E.08119
G1 X79.273 Y87.611 E.10098
G1 X79.273 Y87.078 E.05555
G1 X80.11 Y85.644 E.17305
G1 X80.11 Y84.971 E.07014
G1 X80.518 Y84.409 E.07238
G1 X79.344 Y83.724 E.14166
G1 X80.11 Y82.411 E.15843
G1 X80.11 Y81.737 E.07025
G1 X80.518 Y81.176 E.0723
G1 X79.344 Y80.491 E.14166
G1 X80.104 Y79.187 E.1573
G1 X80.073 Y78.554 E.06605
G1 X80.368 Y78.149 E.05222
G1 X79.44 Y77.424 E.12274
G1 X79.531 Y77.307 E.01545
G1 X79.281 Y77.161 E.03017
G1 X80.642 Y74.815 E.28267
G1 X81.319 Y74.112 E.10172
G1 X81.961 Y73.623 E.08411
G1 X82.642 Y73.245 E.08118
G1 X83.359 Y73.103 E.07618
G1 X83.82 Y72.713 E.06293
G1 X86.105 Y73.088 E.24134
M204 S1000
G1 X82.057 Y76.56 F10800
M204 S800
G1 F1200
G1 X82.416 Y75.942 E.07449
G1 X82.884 Y76.308 E.06192
G1 X83.447 Y77.047 E.09683
G1 X83.66 Y77.95 E.0967
G1 X83.488 Y78.862 E.09673
G1 X83.083 Y79.516 E.08017
G1 X83.11 Y79.754 E.02496
G1 X83.56 Y80.57 E.09712
G1 X83.66 Y81.183 E.06473
G1 X83.56 Y81.896 E.07504
G1 X83.11 Y82.713 E.09721
G1 X83.11 Y82.987 E.02856
G1 X83.56 Y83.804 E.09721
G1 X83.66 Y84.416 E.06463
G1 X83.56 Y85.13 E.07514
G1 X83.11 Y85.946 E.09712
G1 X83.11 Y86.221 E.02866
G1 X83.56 Y87.037 E.09712
G1 X83.66 Y87.75 E.07504
G1 X83.56 Y88.363 E.06473
G1 X83.11 Y89.179 E.09712
G1 X83.11 Y89.454 E.02866
G1 X83.488 Y90.071 E.07541
G1 X83.66 Y90.883 E.08651
G1 X83.56 Y91.596 E.07504
G1 X83.11 Y92.413 E.09721
G1 X83.11 Y92.687 E.02856
G1 X83.56 Y93.504 E.09721
G1 X83.66 Y94.217 E.07504
G1 X83.56 Y94.83 E.06473
G1 X83.11 Y95.646 E.09712
G1 X83.11 Y95.921 E.02866
G1 X83.56 Y96.737 E.09712
G1 X83.66 Y97.45 E.07504
G1 X83.488 Y98.262 E.08651
G1 X83.01 Y99.017 E.09313
G1 X83.488 Y99.771 E.09304
G1 X83.66 Y100.684 E.09683
G1 X83.488 Y101.495 E.0864
G1 X83.01 Y102.25 E.09313
G1 X83.488 Y103.005 E.09313
G1 X83.66 Y103.816 E.0864
G1 X83.488 Y104.729 E.09683
G1 X83.01 Y105.483 E.09304
G1 X83.447 Y106.147 E.08285
